src/assets/img/gitHub.svg

<svg width="30" height="30" viewBox="0 0 30 30" fill="none" xmlns="http://www.w3.org/2000/svg">
<path d="M15 0.740723C6.7125 0.740723 2.18932e-06 7.45322 2.18932e-06 15.7407C-0.00169914 18.8896 0.988222 21.9591 2.82933 24.5137C4.67043 27.0683 7.26922 28.9783 10.257 29.9727C11.007 30.1032 11.2875 29.6532 11.2875 29.2587C11.2875 28.9032 11.268 27.7227 11.268 26.4657C7.5 27.1602 6.525 25.5477 6.225 24.7032C6.0555 24.2712 5.325 22.9407 4.6875 22.5837C4.1625 22.3032 3.4125 21.6087 4.668 21.5907C5.85 21.5712 6.693 22.6782 6.975 23.1282C8.325 25.3962 10.482 24.7587 11.343 24.3657C11.475 23.3907 11.868 22.7352 12.3 22.3602C8.9625 21.9852 5.475 20.6907 5.475 14.9532C5.475 13.3212 6.0555 11.9727 7.0125 10.9212C6.8625 10.5462 6.3375 9.00872 7.1625 6.94622C7.1625 6.94622 8.418 6.55322 11.2875 8.48522C12.5086 8.14631 13.7703 7.97574 15.0375 7.97822C16.3125 7.97822 17.5875 8.14622 18.7875 8.48372C21.6555 6.53372 22.9125 6.94772 22.9125 6.94772C23.7375 9.01022 23.2125 10.5477 23.0625 10.9227C24.018 11.9727 24.6 13.3032 24.6 14.9532C24.6 20.7102 21.0945 21.9852 17.757 22.3602C18.3 22.8282 18.7695 23.7282 18.7695 25.1352C18.7695 27.1407 18.75 28.7532 18.75 29.2602C18.75 29.6532 19.032 30.1212 19.782 29.9712C22.7595 28.9659 25.3469 27.0522 27.1799 24.4994C29.0128 21.9467 29.9991 18.8834 30 15.7407C30 7.45322 23.2875 0.740723 15 0.740723Z" fill="#FFFCF3"/>
</svg>

<svg width="30" height="30" fill="none" xmlns="http://www.w3.org/2000/svg"><path d="M15 .74c-8.287 0-15 6.713-15 15a14.99 14.99 0 0 0 10.257 14.233c.75.13 1.03-.32 1.03-.714 0-.356-.019-1.536-.019-2.793-3.768.694-4.743-.918-5.043-1.763-.17-.432-.9-1.762-1.537-2.12-.526-.28-1.275-.974-.02-.992 1.182-.02 2.025 1.087 2.307 1.537 1.35 2.268 3.507 1.63 4.368 1.238.132-.975.525-1.63.957-2.006-3.338-.375-6.825-1.67-6.825-7.407 0-1.632.58-2.98 1.538-4.032-.15-.375-.675-1.912.15-3.975 0 0 1.255-.393 4.124 1.54a13.92 13.92 0 0 1 3.75-.508c1.275 0 2.55.168 3.75.506 2.869-1.95 4.126-1.536 4.126-1.536.825 2.062.3 3.6.15 3.975.955 1.05 1.537 2.38 1.537 4.03 0 5.757-3.506 7.032-6.843 7.407.543.468 1.012 1.368 1.012 2.775 0 2.006-.019 3.618-.019 4.125 0 .393.282.861 1.032.711A15.024 15.024 0 0 0 30 15.741c0-8.288-6.712-15-15-15Z" fill="#FFFCF3"/></svg>
